icons/svg/landuse/aquaculture.svg

<?xml version="1.0" encoding="UTF-8" standalone="no"?>
<!-- Created with Inkscape (http://www.inkscape.org/) -->

<svg
   xmlns:dc="http://purl.org/dc/elements/1.1/"
   xmlns:cc="http://creativecommons.org/ns#"
   xmlns:rdf="http://www.w3.org/1999/02/22-rdf-syntax-ns#"
   xmlns:svg="http://www.w3.org/2000/svg"
   xmlns="http://www.w3.org/2000/svg"
   xmlns:sodipodi="http://sodipodi.sourceforge.net/DTD/sodipodi-0.dtd"
   xmlns:inkscape="http://www.inkscape.org/namespaces/inkscape"
   version="1.0"
   width="580"
   height="580"
   id="svg2"
   sodipodi:version="0.32"
   inkscape:version="0.91 r"
   sodipodi:docname="aquaculture.svg"
   inkscape:output_extension="org.inkscape.output.svg.inkscape">
  <metadata
     id="metadata10">
    <rdf:RDF>
      <cc:Work
         rdf:about="">
        <dc:format>image/svg+xml</dc:format>
        <dc:type
           rdf:resource="http://purl.org/dc/dcmitype/StillImage" />
        <cc:license
           rdf:resource="http://web.resource.org/cc/PublicDomain" />
        <dc:language>en</dc:language>
        <dc:title />
      </cc:Work>
    </rdf:RDF>
  </metadata>
  <sodipodi:namedview
     inkscape:window-height="1006"
     inkscape:window-width="1920"
     inkscape:pageshadow="2"
     inkscape:pageopacity="0.0"
     guidetolerance="10.0"
     gridtolerance="10.0"
     objecttolerance="10.0"
     borderopacity="1.0"
     bordercolor="#666666"
     pagecolor="#ffffff"
     id="base"
     showgrid="false"
     inkscape:zoom="0.70710678"
     inkscape:cx="293.31895"
     inkscape:cy="354.39326"
     inkscape:window-x="1680"
     inkscape:window-y="0"
     inkscape:current-layer="svg2"
     showguides="true"
     inkscape:guide-bbox="true"
     inkscape:window-maximized="1" />
  <defs
     id="defs4">
    <inkscape:perspective
       sodipodi:type="inkscape:persp3d"
       inkscape:vp_x="0 : 290 : 1"
       inkscape:vp_y="0 : 1000 : 0"
       inkscape:vp_z="580 : 290 : 1"
       inkscape:persp3d-origin="290 : 193.33333 : 1"
       id="perspective12" />
    <style
       type="text/css"
       id="style6">
   
    .fil0 {fill:#EF7900}
   
  </style>
    <inkscape:perspective
       id="perspective6807"
       inkscape:persp3d-origin="29.116032 : 19.410688 : 1"
       inkscape:vp_z="58.232063 : 29.116032 : 1"
       inkscape:vp_y="0 : 1000 : 0"
       inkscape:vp_x="0 : 29.116032 : 1"
       sodipodi:type="inkscape:persp3d" />
    <inkscape:perspective
       id="perspective6954"
       inkscape:persp3d-origin="290 : 193.33333 : 1"
       inkscape:vp_z="580 : 290 : 1"
       inkscape:vp_y="0 : 1000 : 0"
       inkscape:vp_x="0 : 290 : 1"
       sodipodi:type="inkscape:persp3d" />
    <inkscape:perspective
       id="perspective2541"
       inkscape:persp3d-origin="240 : 160 : 1"
       inkscape:vp_z="480 : 240 : 1"
       inkscape:vp_y="0 : 1000 : 0"
       inkscape:vp_x="0 : 240 : 1"
       sodipodi:type="inkscape:persp3d" />
    <inkscape:perspective
       id="perspective2750"
       inkscape:persp3d-origin="215 : 143.33333 : 1"
       inkscape:vp_z="430 : 215 : 1"
       inkscape:vp_y="0 : 1000 : 0"
       inkscape:vp_x="0 : 215 : 1"
       sodipodi:type="inkscape:persp3d" />
    <inkscape:perspective
       id="perspective2830"
       inkscape:persp3d-origin="0.5 : 0.33333333 : 1"
       inkscape:vp_z="1 : 0.5 : 1"
       inkscape:vp_y="0 : 1000 : 0"
       inkscape:vp_x="0 : 0.5 : 1"
       sodipodi:type="inkscape:persp3d" />
    <inkscape:perspective
       id="perspective3648"
       inkscape:persp3d-origin="0.5 : 0.33333333 : 1"
       inkscape:vp_z="1 : 0.5 : 1"
       inkscape:vp_y="0 : 1000 : 0"
       inkscape:vp_x="0 : 0.5 : 1"
       sodipodi:type="inkscape:persp3d" />
    <inkscape:perspective
       id="perspective3675"
       inkscape:persp3d-origin="0.5 : 0.33333333 : 1"
       inkscape:vp_z="1 : 0.5 : 1"
       inkscape:vp_y="0 : 1000 : 0"
       inkscape:vp_x="0 : 0.5 : 1"
       sodipodi:type="inkscape:persp3d" />
    <inkscape:perspective
       id="perspective3736"
       inkscape:persp3d-origin="0.5 : 0.33333333 : 1"
       inkscape:vp_z="1 : 0.5 : 1"
       inkscape:vp_y="0 : 1000 : 0"
       inkscape:vp_x="0 : 0.5 : 1"
       sodipodi:type="inkscape:persp3d" />
  </defs>
  <g
     id="g1327">
    <path
       d="M 66.275,1.768 C 24.94,1.768 1.704,23.139 1.704,66.804 L 1.704,516.927 C 1.704,557.771 22.598,579.156 63.896,579.156 L 515.92,579.156 C 557.227,579.156 578.149,558.84 578.149,516.927 L 578.149,66.804 C 578.149,24.203 557.227,1.768 514.627,1.768 C 514.624,1.768 66.133,1.625 66.275,1.768 z"
       style="fill:#111111;stroke:#eeeeee;stroke-width:3.40799999"
       id="path1329" />
  </g>
  <path
     style="fill:#ffffff;fill-opacity:1;stroke-width:45.53900146;stroke-miterlimit:4;stroke-dasharray:none"
     d="M 84.923828,89.684953 C 73.27888,99.819143 56.429203,102.73031 46.078125,102.73031 c -1.981539,0 -4.464157,-0.16313 -7.279297,-0.50866 l 0,25.99341 c 2.805877,0.37662 5.29106,0.58828 7.279297,0.58828 10.351079,0 27.200755,-2.93181 38.845703,-13.066 7.290219,6.34442 16.655242,9.853 25.140622,11.59751 l 0,0.0192 c 0.0593,0 0.11259,-6.3e-4 0.17188,0 3.75057,0.76103 7.33252,1.19209 10.5039,1.35201 0.33485,0.0271 0.65618,0.0219 1.00196,0.0383 0.46219,0.0224 0.90911,0.059 1.39258,0.059 0.13749,0 0.25412,4.4e-4 0.39062,0 0.0724,2.8e-4 0.14894,0 0.2207,0 0.21178,-0.002 0.42538,-0.0378 0.63477,-0.0398 20.64822,-0.20995 29.73869,-5.54159 37.2832,-12.32144 0.26581,-0.21864 0.52044,-0.42 0.78125,-0.64577 4.13254,3.54562 8.91983,6.19301 13.82813,8.14892 0.3158,0.12817 0.66172,0.28906 0.97851,0.41135 0.0115,0.004 0.0124,-0.004 0.0234,0 0.85731,0.33034 1.72914,0.63143 2.58984,0.92002 0.34281,0.11287 0.65921,0.18825 1.00196,0.29487 5.85452,1.85398 11.69392,2.82509 16.61328,3.1139 0.65685,0.0386 1.2835,0.0618 1.90625,0.0782 0.54245,0.0205 1.03032,0.0378 1.53906,0.0398 0.99727,0.0668 1.95121,0.0781 2.78516,0.0781 10.13364,0 26.47853,-2.81266 38.08789,-12.43939 7.23951,5.90805 16.27153,9.22163 24.53711,10.90013 l 0,0.0118 c 0.0198,0 0.0379,6e-5 0.0566,0 3.33617,0.67472 6.55041,1.09205 9.46484,1.29303 0.39575,0.0273 0.76215,0.0391 1.14649,0.059 0.003,1.3e-4 0.005,-1.3e-4 0.008,0 0.43069,0.0307 0.86957,0.0763 1.28711,0.0973 0.33487,0.0271 0.70501,0.002 1.05078,0.0192 0.46219,0.0224 0.88568,0.059 1.36914,0.059 0.13751,0 0.27951,4.4e-4 0.41602,0 0.0725,2.8e-4 0.147,0 0.21875,0 0.21179,-0.002 0.40193,-0.0173 0.61132,-0.0192 20.64824,-0.20994 29.76211,-5.54159 37.30664,-12.32144 0.0603,-0.0496 0.11933,-0.0979 0.17774,-0.14743 3.96271,3.24249 8.47208,5.70934 13.0957,7.5518 0.3158,0.12817 0.65977,0.28906 0.97656,0.41135 0.0115,0.004 0.0144,-0.004 0.0254,0 0.8573,0.33034 1.72914,0.63143 2.58984,0.92002 0.34281,0.11287 0.65725,0.18825 1,0.29487 5.85452,1.85398 11.69587,2.82509 16.61523,3.1139 0.22098,0.013 0.42557,0.0167 0.64063,0.0266 0.22109,0.0153 0.45204,0.0388 0.66992,0.0516 0.65689,0.0386 1.3089,0.0824 1.93164,0.0988 0.79467,0.0301 1.53714,0.0192 2.27148,0.0192 0.086,0 0.18076,-0.004 0.26758,-0.004 0.14664,7.5e-4 0.30705,0.004 0.44727,0.004 10.13364,0 26.48048,-2.81266 38.08984,-12.43939 10.17943,8.30727 23.90807,11.50513 34.05664,12.20496 0.39575,0.0273 0.7641,0.0391 1.14844,0.059 0.43318,0.0307 0.87487,0.0762 1.29492,0.0973 0.2359,0.0191 0.49025,0.0129 0.74024,0.0133 0.31811,0.0141 0.62665,0.0234 0.93554,0.0324 0.24264,0.0134 0.47973,0.0324 0.74219,0.0324 0.13751,0 0.2795,4.4e-4 0.41602,0 0.0725,2.8e-4 0.14895,0 0.2207,0 0.0319,-2.3e-4 0.0607,-0.002 0.0918,-0.003 0.0465,1.2e-4 0.0983,0.003 0.14453,0.003 1.00531,0 2.0862,-0.0372 3.20117,-0.0944 14.8579,-0.52042 23.36472,-3.88178 29.83594,-8.49541 1.94371,-1.16 3.81434,-2.46255 5.57812,-3.92039 6.6734,5.47578 14.90049,8.7353 22.64258,10.53154 0.66825,0.15503 1.36763,0.31747 2.02734,0.45116 0.0475,0.0102 0.0991,0.0284 0.14649,0.0383 3.56589,0.7575 6.96645,1.19067 10.04101,1.37118 0.65689,0.0386 1.30695,0.0824 1.92969,0.0988 0.79467,0.0301 1.53909,0.0192 2.27344,0.0192 8.03897,0 19.92631,-1.71899 30.34961,-7.09474 l 0,-27.542988 c -6.4958,3.210581 -15.99819,7.155288 -25.29297,8.271298 -0.0845,0.0101 -0.1596,0.0288 -0.24414,0.0383 -1.88283,0.15382 -3.66184,0.21674 -5.27734,0.21674 -0.9981,0 -2.09404,-0.0424 -3.20118,-0.0988 -0.24993,-0.0128 -0.50297,-0.003 -0.75781,-0.0192 -0.58756,-0.0432 -1.22092,-0.0964 -1.83203,-0.15629 -0.23686,-0.0232 -0.46696,-0.0331 -0.70703,-0.059 -0.68911,-0.0682 -1.41345,-0.16366 -2.12695,-0.25506 -0.0935,-0.0128 -0.19913,-0.006 -0.29297,-0.0192 -4.37158,-0.61249 -9.13006,-1.6859 -13.83399,-3.376347 l 0,-0.247697 c -5.40465,-2.003073 -10.69481,-4.82484 -15.2207,-8.718039 -0.0956,0.08225 -0.19472,0.160497 -0.29102,0.241799 -0.11971,-0.101774 -0.24461,-0.196024 -0.36328,-0.2993 -0.0336,0.02936 -0.0874,0.06837 -0.12109,0.09731 -0.0129,-0.01147 -0.0123,-0.02856 -0.0254,-0.03981 -0.0718,0.06175 -0.1466,0.134902 -0.21875,0.196093 -0.10856,-0.09145 -0.21066,-0.181611 -0.31836,-0.274236 -11.63707,10.010291 -28.33831,12.949807 -38.83789,13.020297 -2.4505,-0.0162 -5.24747,-0.18517 -8.23438,-0.56764 -0.44872,-0.0614 -0.89874,-0.12625 -1.35547,-0.19757 -0.11757,-0.0178 -0.23544,-0.0346 -0.35351,-0.0531 -9.24626,-1.49083 -19.9693,-5.058248 -28.1543,-12.181367 -0.0562,0.04888 -0.11361,0.09576 -0.16992,0.144489 -0.0347,-0.02964 -0.0709,-0.05722 -0.10547,-0.08699 -0.0605,0.05201 -0.13392,0.10768 -0.19531,0.157759 -0.10263,-0.08654 -0.21456,-0.148282 -0.31641,-0.235902 -0.0838,0.07202 -0.15986,0.143939 -0.24414,0.21526 l 0,-0.194618 c 0,0 -0.22012,0.134347 -0.30078,0.184298 -0.0852,-0.0682 -0.17302,-0.133686 -0.25586,-0.20494 -0.24782,0.21318 -0.50351,0.400631 -0.75586,0.607447 l 0,-0.664948 c 0,0 -21.00734,13.255492 -38.79883,13.045362 -0.28884,-0.003 -0.60363,-0.0115 -0.90234,-0.0192 -4.68864,-0.31647 -10.9286,-1.27899 -17.41992,-2.919285 0.002,0.02821 0.008,0.05704 0.0117,0.08551 -6.73114,-2.011089 -13.56083,-5.20909 -19.19727,-10.114281 -0.0336,0.02936 -0.0894,0.06837 -0.12305,0.09731 -0.0129,-0.01147 -0.0103,-0.02856 -0.0234,-0.03981 -0.0718,0.06175 -0.14856,0.134902 -0.22071,0.196093 -0.10856,-0.09145 -0.2087,-0.181611 -0.3164,-0.274236 -0.0966,0.08311 -0.19761,0.161135 -0.29492,0.243274 -0.119,-0.101162 -0.24142,-0.198118 -0.35938,-0.300775 -0.0336,0.02936 -0.0872,0.04915 -0.12109,0.07814 -0.013,-0.01148 -0.0123,-0.0094 -0.0254,-0.02064 -9.57214,8.234039 -22.62087,11.68819 -32.78711,12.69446 -0.78202,0.0774 -1.52623,0.12597 -2.27149,0.17545 -0.74527,0.0494 -1.47107,0.0751 -2.17383,0.0988 -0.48862,0.0165 -0.97567,0.0146 -1.4414,0.0192 -1.23331,0 -2.56352,-0.0442 -3.96094,-0.13417 -10.19614,-0.8596 -23.67232,-4.280366 -33.5,-12.833049 -0.20805,0.181051 -0.41789,0.359632 -0.62891,0.536676 -0.24511,-0.203412 -0.49164,-0.405278 -0.73242,-0.614819 -0.048,0.0418 -0.0983,0.08083 -0.14648,0.122374 -0.0264,-0.02208 -0.054,-0.04241 -0.0801,-0.06487 -0.24782,0.21318 -0.50546,0.400631 -0.75781,0.607447 l 0,-0.664948 c 0,0 -20.5427,12.955069 -38.20508,13.037989 -0.74797,-0.007 -1.56491,-0.0365 -2.4375,-0.0885 -4.56863,-0.37398 -10.40504,-1.30791 -16.47852,-2.842616 0.0105,0.123009 0.0383,0.250026 0.0488,0.373016 -7.17686,-1.964351 -14.55763,-5.247311 -20.57031,-10.479926 -0.0336,0.02936 -0.0892,0.04915 -0.12305,0.07814 -0.013,-0.01148 -0.0103,-0.0094 -0.0234,-0.02064 -9.57214,8.234039 -22.62087,11.688186 -32.78711,12.694456 -0.78202,0.0774 -1.52818,0.12597 -2.27344,0.17545 -0.74527,0.0494 -1.47107,0.0751 -2.17383,0.0988 -0.48862,0.0165 -0.97568,0.0146 -1.44141,0.0192 -10.35107,0 -27.177314,-2.911168 -38.822262,-13.045358 z"
     id="path17"
     inkscape:connector-curvature="0" />
  <path
     style="color:#000000;display:inline;overflow:visible;visibility:visible;fill:#ffffff;fill-opacity:1;fill-rule:nonzero;stroke-width:0.96049488;stroke-linecap:butt;stroke-linejoin:miter;stroke-miterlimit:4;stroke-dasharray:none;stroke-dashoffset:0;stroke-opacity:1;marker:none;enable-background:accumulate"
     d="m 366.37073,221.00893 c 6.87338,0.18983 31.18899,-0.67742 33.2546,2.94098 0.0173,0.55157 -3.33093,3.18429 -6.20365,6.90825 -5.38363,6.9789 -13.66,17.66735 -12.31539,18.90195 0.69868,0.64155 6.66652,-4.03405 17.61528,-12.5145 9.38642,-7.27031 11.05678,-5.44313 5.56032,6.05046 -6.57948,13.75836 -17.70364,29.36573 -40.88278,49.39939 -0.24814,0.25356 -0.50043,0.50069 -0.75056,0.75058 -0.15288,11.01279 -2.36233,23.2008 -7.61288,29.18007 -13.78975,15.70371 -16.4014,3.89779 -24.92177,-5.88196 -7.10802,4.05814 -14.31745,7.97615 -21.35279,12.30005 -1.116,1.00826 -5.13868,3.23428 -8.9302,4.91698 -21.20388,11.77758 -39.38309,20.71638 -51.48256,35.59819 -11.82703,13.10379 -11.66457,29.87496 -15.39422,45.81505 -0.39671,0.41585 -1.27726,4.54528 -1.94536,9.15994 -1.818,12.55723 -4.41548,13.61477 -8.76167,3.63028 -3.57,-8.20125 -13.17242,-25.40362 -15.25637,-27.32666 -8.80762,-4.4757 -19.12649,-10.36777 -28.42955,-13.84714 -4.59494,-1.26725 -7.88125,-3.92668 -6.57127,-5.2999 0.21663,-0.22713 1.50872,-0.81717 2.91036,-1.33263 1.40162,-0.51548 5.04357,-1.86648 8.01111,-2.98696 2.96753,-1.12045 6.90255,-2.16931 8.77702,-2.29765 9.87752,-2.05522 18.23069,-6.61797 25.18221,-14.1841 6.48779,-9.73822 15.73177,-21.52913 18.30457,-35.16931 5.76022,-19.15986 6.30224,-20.75484 9.65011,-27.75556 1.82014,-3.80611 3.30483,-7.15831 3.2933,-7.42906 -0.0113,-0.27072 -1.56389,-0.41726 -3.44647,-0.33699 -1.88261,0.0802 -3.81205,-0.39928 -4.25832,-1.05692 -0.44621,-0.65768 1.01279,-5.14615 3.18608,-10.00241 2.5319,-5.65759 4.08927,-11.88551 4.3502,-17.33956 0.20997,-4.38896 1.03469,-8.33349 1.88408,-9.12931 0.0568,-0.0531 0.11179,-0.0827 0.16849,-0.1071 0.90502,-0.39229 8.16778,-0.0353 16.14479,0.81184 l 14.5058,1.53177 5.05483,-4.35022 c 24.08022,-18.87574 50.39257,-27.57952 80.66266,-29.54773 z m -0.90373,11.67202 c -1.17681,0 -2.349,0.44962 -3.24734,1.34796 -1.79672,1.7967 -1.79672,4.7133 0,6.51 1.7967,1.7967 4.71328,1.7967 6.50998,0 1.7967,-1.7967 1.79672,-4.71328 0,-6.51 -0.89834,-0.89834 -2.08585,-1.34796 -3.26264,-1.34796 z"
     id="path1932"
     inkscape:connector-curvature="0" />
  <rect
     style="color:#000000;clip-rule:nonzero;display:inline;overflow:visible;visibility:visible;opacity:1;isolation:auto;mix-blend-mode:normal;color-interpolation:sRGB;color-interpolation-filters:linearRGB;solid-color:#000000;solid-opacity:1;fill:none;fill-opacity:1;fill-rule:nonzero;stroke:#ffffff;stroke-width:17.96961021;stroke-linecap:round;stroke-linejoin:round;stroke-miterlimit:4;stroke-dasharray:none;stroke-dashoffset:0;stroke-opacity:1;marker:none;color-rendering:auto;image-rendering:auto;shape-rendering:auto;text-rendering:auto;enable-background:accumulate"
     id="rect4172"
     width="300.55536"
     height="299.36176"
     x="139.72232"
     y="168.31912" />
</svg>

<svg width="580" height="580" viewBox="0 0 580 580" fill="none" xmlns="http://www.w3.org/2000/svg">
<g clip-path="url(#clip0)">
<path d="M66.275 1.76802C24.94 1.76802 1.70399 23.139 1.70399 66.804V516.927C1.70399 557.771 22.598 579.156 63.896 579.156H515.92C557.227 579.156 578.149 558.84 578.149 516.927V66.804C578.149 24.203 557.227 1.76802 514.627 1.76802C514.624 1.76802 66.133 1.62502 66.275 1.76802Z" fill="#111111" stroke="#EEEEEE" stroke-width="3.408"/>
<path d="M84.9238 89.6849C73.2789 99.8191 56.4292 102.73 46.0781 102.73C44.0966 102.73 41.614 102.567 38.7988 102.222V128.215C41.6047 128.592 44.0899 128.803 46.0781 128.803C56.4292 128.803 73.2789 125.871 84.9238 115.737C92.214 122.082 101.579 125.59 110.064 127.335V127.354C110.124 127.354 110.177 127.353 110.236 127.354C113.987 128.115 117.569 128.546 120.74 128.706C121.075 128.733 121.396 128.728 121.742 128.744C122.204 128.767 122.651 128.803 123.135 128.803C123.272 128.803 123.389 128.804 123.525 128.803C123.598 128.804 123.674 128.803 123.746 128.803C123.958 128.801 124.171 128.766 124.381 128.764C145.029 128.554 154.12 123.222 161.664 116.442C161.93 116.223 162.185 116.022 162.445 115.796C166.578 119.342 171.365 121.989 176.273 123.945C176.589 124.073 176.935 124.234 177.252 124.357C177.263 124.361 177.264 124.353 177.275 124.357C178.133 124.687 179.004 124.988 179.865 125.277C180.208 125.389 180.524 125.465 180.867 125.571C186.722 127.425 192.561 128.397 197.48 128.685C198.137 128.724 198.764 128.747 199.387 128.764C199.929 128.784 200.417 128.801 200.926 128.803C201.923 128.87 202.877 128.881 203.711 128.881C213.845 128.881 230.189 126.069 241.799 116.442C249.038 122.35 258.07 125.664 266.336 127.342V127.354C266.356 127.354 266.374 127.354 266.392 127.354C269.729 128.029 272.943 128.446 275.857 128.647C276.253 128.674 276.62 128.686 277.004 128.706C277.007 128.706 277.009 128.706 277.012 128.706C277.443 128.737 277.881 128.782 278.299 128.803C278.634 128.83 279.004 128.805 279.35 128.823C279.812 128.845 280.235 128.882 280.719 128.882C280.856 128.882 280.998 128.882 281.135 128.882C281.207 128.882 281.282 128.882 281.354 128.882C281.565 128.88 281.756 128.864 281.965 128.862C302.613 128.652 311.727 123.321 319.272 116.541C319.332 116.491 319.391 116.443 319.449 116.393C323.412 119.636 327.921 122.103 332.545 123.945C332.861 124.073 333.205 124.234 333.522 124.357C333.533 124.361 333.536 124.353 333.547 124.357C334.404 124.687 335.276 124.988 336.137 125.277C336.48 125.389 336.794 125.465 337.137 125.571C342.991 127.425 348.833 128.397 353.752 128.685C353.973 128.698 354.178 128.702 354.393 128.712C354.614 128.727 354.845 128.751 355.063 128.764C355.72 128.802 356.372 128.846 356.994 128.862C357.789 128.893 358.531 128.882 359.266 128.882C359.352 128.882 359.447 128.878 359.533 128.878C359.68 128.878 359.84 128.882 359.981 128.882C370.114 128.882 386.461 126.069 398.07 116.442C408.25 124.749 421.979 127.947 432.127 128.647C432.523 128.674 432.891 128.686 433.276 128.706C433.709 128.737 434.15 128.782 434.57 128.803C434.806 128.823 435.061 128.816 435.311 128.817C435.629 128.831 435.937 128.84 436.246 128.849C436.489 128.863 436.726 128.882 436.988 128.882C437.126 128.882 437.268 128.882 437.404 128.882C437.477 128.882 437.553 128.882 437.625 128.882C437.657 128.881 437.686 128.88 437.717 128.879C437.763 128.879 437.815 128.882 437.861 128.882C438.867 128.882 439.948 128.844 441.063 128.787C455.921 128.267 464.427 124.905 470.899 120.292C472.842 119.132 474.713 117.829 476.477 116.371C483.15 121.847 491.377 125.107 499.119 126.903C499.788 127.058 500.487 127.22 501.147 127.354C501.194 127.364 501.246 127.382 501.293 127.392C504.859 128.15 508.26 128.583 511.334 128.764C511.991 128.802 512.641 128.846 513.264 128.862C514.058 128.892 514.803 128.882 515.537 128.882C523.576 128.882 535.464 127.163 545.887 121.787V94.2438C539.391 97.4544 529.889 101.399 520.594 102.515C520.509 102.525 520.434 102.544 520.35 102.553C518.467 102.707 516.688 102.77 515.072 102.77C514.074 102.77 512.978 102.728 511.871 102.671C511.621 102.659 511.368 102.668 511.113 102.652C510.526 102.609 509.892 102.556 509.281 102.496C509.045 102.473 508.814 102.463 508.574 102.437C507.885 102.369 507.161 102.273 506.447 102.182C506.354 102.169 506.248 102.176 506.154 102.163C501.783 101.55 497.024 100.477 492.32 98.7863V98.5386C486.916 96.5355 481.626 93.7137 477.1 89.8205C477.004 89.9028 476.905 89.981 476.809 90.0623C476.689 89.9606 476.564 89.8663 476.445 89.763C476.412 89.7924 476.358 89.8314 476.324 89.8603C476.311 89.8489 476.312 89.8318 476.299 89.8205C476.227 89.8823 476.152 89.9554 476.08 90.0166C475.972 89.9252 475.87 89.835 475.762 89.7424C464.125 99.7527 447.424 102.692 436.924 102.763C434.473 102.746 431.676 102.578 428.69 102.195C428.241 102.134 427.791 102.069 427.334 101.997C427.217 101.98 427.099 101.963 426.981 101.944C417.734 100.454 407.011 96.8861 398.826 89.763C398.77 89.8119 398.713 89.8588 398.656 89.9075C398.622 89.8778 398.585 89.8503 398.551 89.8205C398.49 89.8725 398.417 89.9282 398.356 89.9783C398.253 89.8917 398.141 89.83 398.039 89.7424C397.955 89.8144 397.879 89.8863 397.795 89.9576V89.763C397.795 89.763 397.575 89.8973 397.494 89.9473C397.409 89.8791 397.321 89.8136 397.238 89.7424C396.991 89.9555 396.735 90.143 396.483 90.3498V89.6849C396.483 89.6849 375.475 102.94 357.684 102.73C357.395 102.727 357.08 102.719 356.781 102.711C352.093 102.395 345.853 101.432 339.361 99.7917C339.363 99.8199 339.369 99.8488 339.373 99.8772C332.642 97.8662 325.812 94.6682 320.176 89.763C320.142 89.7923 320.086 89.8313 320.053 89.8603C320.04 89.8488 320.043 89.8317 320.029 89.8205C319.958 89.8822 319.881 89.9554 319.809 90.0166C319.7 89.9251 319.6 89.8349 319.492 89.7423C319.396 89.8254 319.295 89.9034 319.197 89.9856C319.078 89.8844 318.956 89.7875 318.838 89.6848C318.804 89.7142 318.751 89.734 318.717 89.763C318.704 89.7515 318.705 89.7536 318.691 89.7423C309.119 97.9764 296.071 101.431 285.904 102.437C285.122 102.514 284.378 102.563 283.633 102.612C282.888 102.662 282.162 102.687 281.459 102.711C280.97 102.728 280.483 102.726 280.018 102.73C278.784 102.73 277.454 102.686 276.057 102.596C265.861 101.736 252.384 98.3157 242.557 89.763C242.349 89.9441 242.139 90.1226 241.928 90.2997C241.683 90.0963 241.436 89.8944 241.195 89.6849C241.147 89.7267 241.097 89.7657 241.049 89.8072C241.023 89.7852 240.995 89.7648 240.969 89.7424C240.721 89.9556 240.463 90.143 240.211 90.3498V89.6849C240.211 89.6849 219.668 102.64 202.006 102.723C201.258 102.716 200.441 102.686 199.568 102.634C195 102.26 189.163 101.326 183.09 99.7917C183.1 99.9147 183.128 100.042 183.139 100.165C175.962 98.2004 168.581 94.9174 162.568 89.6848C162.535 89.7142 162.479 89.734 162.445 89.763C162.432 89.7515 162.435 89.7536 162.422 89.7423C152.85 97.9764 139.801 101.431 129.635 102.437C128.853 102.514 128.107 102.563 127.361 102.612C126.616 102.662 125.89 102.687 125.188 102.711C124.699 102.728 124.212 102.726 123.746 102.73C113.395 102.73 96.5689 99.8191 84.9239 89.6849L84.9238 89.6849Z" fill="white"/>
<path d="M366.371 221.009C373.244 221.199 397.56 220.331 399.625 223.95C399.643 224.501 396.294 227.134 393.422 230.858C388.038 237.837 379.762 248.526 381.106 249.76C381.805 250.402 387.773 245.726 398.722 237.246C408.108 229.975 409.778 231.802 404.282 243.296C397.702 257.054 386.578 272.662 363.399 292.695C363.151 292.949 362.899 293.196 362.649 293.446C362.496 304.459 360.286 316.647 355.036 322.626C341.246 338.33 338.634 326.524 330.114 316.744C323.006 320.802 315.796 324.72 308.761 329.044C307.645 330.052 303.622 332.278 299.831 333.961C278.627 345.739 260.448 354.678 248.348 369.559C236.521 382.663 236.684 399.434 232.954 415.374C232.557 415.79 231.677 419.92 231.009 424.534C229.191 437.092 226.593 438.149 222.247 428.165C218.677 419.963 209.075 402.761 206.991 400.838C198.183 396.362 187.864 390.47 178.561 386.991C173.966 385.724 170.68 383.064 171.99 381.691C172.207 381.464 173.499 380.874 174.9 380.358C176.302 379.843 179.944 378.492 182.911 377.371C185.879 376.251 189.814 375.202 191.688 375.074C201.566 373.018 209.919 368.456 216.871 360.89C223.358 351.151 232.602 339.36 235.175 325.72C240.935 306.56 241.477 304.965 244.825 297.965C246.645 294.159 248.13 290.806 248.119 290.536C248.107 290.265 246.555 290.118 244.672 290.199C242.79 290.279 240.86 289.799 240.414 289.142C239.968 288.484 241.427 283.996 243.6 279.139C246.132 273.482 247.689 267.254 247.95 261.8C248.16 257.411 248.985 253.466 249.834 252.67C249.891 252.617 249.946 252.588 250.003 252.563C250.908 252.171 258.17 252.528 266.147 253.375L280.653 254.907L285.708 250.557C309.788 231.681 336.101 222.977 366.371 221.009V221.009ZM365.467 232.681C364.29 232.681 363.118 233.131 362.22 234.029C360.423 235.826 360.423 238.742 362.22 240.539C364.016 242.336 366.933 242.336 368.73 240.539C370.526 238.742 370.526 235.826 368.73 234.029C367.831 233.131 366.644 232.681 365.467 232.681Z" fill="white"/>
<path d="M440.278 168.319H139.722V467.681H440.278V168.319Z" stroke="white" stroke-width="17.9696" stroke-linecap="round" stroke-linejoin="round"/>
</g>
<defs>
<clipPath id="clip0">
<path d="M0 0H580V580H0V0Z" fill="white"/>
</clipPath>
</defs>
</svg>
